public/icons/Star.svg

<svg width="13" height="12" viewBox="0 0 13 12" fill="none" xmlns="http://www.w3.org/2000/svg">
<path d="M8.81766 0.41075C9.12534 0.1219 9.62289 0.395517 9.54375 0.81005L8.90491 4.15655C8.86952 4.34193 8.95753 4.52902 9.1229 4.61997L12.1082 6.26167C12.478 6.46503 12.3715 7.02278 11.9528 7.07561L8.5727 7.50216C8.38545 7.52579 8.23471 7.6673 8.19932 7.85269L7.56048 11.1992C7.48135 11.6137 6.91799 11.6848 6.73836 11.3029L5.28817 8.22006C5.20783 8.04928 5.02667 7.94965 4.83942 7.97328L1.4593 8.39983C1.0406 8.45267 0.798902 7.93885 1.10658 7.65L3.59044 5.31813C3.72803 5.18895 3.7668 4.98586 3.68647 4.81508L2.23628 1.73221C2.05664 1.35033 2.47062 0.961685 2.84041 1.16504L5.82571 2.80674C5.99108 2.89769 6.19621 2.8718 6.3338 2.74262L8.81766 0.41075Z" fill="#6159C7"/>
</svg>

<svg xmlns="http://www.w3.org/2000/svg" width="13" height="12" fill="none"><path fill="#6159C7" d="M8.818.41a.436.436 0 0 1 .726.4l-.64 3.347a.436.436 0 0 0 .219.463l2.985 1.642a.436.436 0 0 1-.155.814l-3.38.426a.436.436 0 0 0-.374.35L7.56 11.2a.436.436 0 0 1-.822.104L5.288 8.22a.436.436 0 0 0-.449-.247L1.46 8.4a.436.436 0 0 1-.352-.75L3.59 5.318a.436.436 0 0 0 .096-.503l-1.45-3.083a.436.436 0 0 1 .604-.567l2.986 1.642c.165.09.37.065.508-.064L8.818.41Z"/></svg>
